!! J.S. Bach, Die Kunst der Fuge, Fuga III in d minor; BWV 1080.
!! Encoded from "Bach; Die Kunst der Fuge", (Carl Czerny, ed.)
!! New York: C.F. Peters Co., pp.8-9; in four voices.
!! Performance duration: 2:51; performance tempo: 101.1 quarter-notes per min.
!! (Davitt Moroney, harpsichord, "Bach, 'Die Kunst der Fuge'",
!! Harmonia Mundi No. HMC 1169.70)
**kern	**kern	**kern	**kern
*d:	*d:	*d:	*d:
*M2/2	*M2/2	*M2/2	*M2/2
*MM101.1	*MM101.1	*MM101.1	*MM101.1
=1	=1	=1	=1
1r	2d	1r	1r
.	2A	.	.
=2	=2	=2	=2
1r	2c	1r	1r
.	2e	.	.
=3	=3	=3	=3
1r	2f	1r	1r
.	4e	.	.
.	4d	.	.
=4	=4	=4	=4
1r	[2c#	1r	1r
.	8c#]	.	.
.	8A	.	.
.	8Bn	.	.
.	8c#	.	.
=5	=5	=5	=5
1r	4d	2a	1r
.	2cn	.	.
.	.	2d	.
.	8Bn	.	.
.	8B-	.	.
=6	=6	=6	=6
1r	8A	2f	1r
.	8G#	.	.
.	8A	.	.
.	8Bn	.	.
.	4c	2a	.
.	[4c#	.	.
=7	=7	=7	=7
1r	4c#]	2f	1r
.	8d	.	.
.	8e	.	.
.	4f	4a	.
.	[4e	4g	.
=8	=8	=8	=8
1r	8e]	[2f	1r
.	8A	.	.
.	8Bn	.	.
.	8c#	.	.
.	8d	8f]	.
.	8c#	8e	.
.	8d	8f	.
.	8e	8g	.
=9	=9	=9	=9
1r	8f	4a	2dd
.	8e	.	.
.	8d	2g	.
.	8c#	.	.
.	4d	.	2a
.	4D	8f#	.
.	.	8fn	.
=10	=10	=10	=10
1r	8A	8e	2cc
.	8Bn	8d#	.
.	[4c	8e	.
.	.	8f#	.
.	8c]	4g	2ee
.	8e	.	.
.	8dn	[4g#	.
.	8c	.	.
=11	=11	=11	=11
1r	8Bn	4g#]	2ff
.	8BBn	.	.
.	8C	8a	.
.	8D	8bn	.
.	8E	4cc	4ee
.	8F#	.	.
.	8G#	[4b	4dd
.	8E	.	.
=12	=12	=12	=12
1r	4A	8b]	[2cc#
.	.	8e	.
.	4Gn	8fn	.
.	.	8gn	.
.	4F	4a	8cc#]
.	.	.	8a
.	4E	[4g	8bn
.	.	.	8cc#
=13	=13	=13	=13
1r	8D	8g]	[2dd
.	8d	8f#	.
.	8e	8g	.
.	8f#	8a	.
.	4g	4b	8dd]
.	.	.	8dd
.	4fn	4a	8ee
.	.	.	8ffn
=14	=14	=14	=14
1r	4e	[2g	8gg
.	.	.	8bn
.	4d	.	8cc#
.	.	.	8dd
.	4c#	8g]	4ee
.	.	8e	.
.	4d	8f	[4dd
.	.	8g	.
=15	=15	=15	=15
2A	2e	4.a	8dd]
.	.	.	8cc#
.	.	.	2ccn
.	.	8g	.
2D	[2d	8f#	.
.	.	8e	.
.	.	[4fn	8bn
.	.	.	8b-
=16	=16	=16	=16
2F	4d]	2f_	8a
.	.	.	8g#
.	8c	.	8a
.	8Bn	.	8bn
2A	4A	8f]	4cc
.	.	8a	.
.	4r	8gn	[4cc#
.	.	8f	.
=17	=17	=17	=17
2B-	4r	8g	4cc#]
.	.	8e	.
.	[4d	8f	8dd
.	.	8g	8ee
4A	8d]	[2a	4ff
.	8Bn	.	.
4G	8c#	.	[4ee
.	8e	.	.
=18	=18	=18	=18
[2F	4A	8a]	8ee]
.	.	8c#	8a
.	4r	8d	8bn
.	.	8e	8cc#
8F]	2r	8f	4.dd
8E	.	8g	.
8F	.	8a	.
8G	.	8b-	8ee
=19	=19	=19	=19
8A	1r	4e	4cc#
8AA	.	.	.
8r	.	2a	4ff
8AA	.	.	.
8BB-	.	.	4.dd
8AA	.	.	.
8BBn	.	8g#	.
8C#	.	[8gn	8ee
=20	=20	=20	=20
8D	1r	8g]	4a
8DD	.	8f#	.
8r	.	4b-	2dd
8D	.	.	.
8E-	.	4.g	.
8D	.	.	.
8En	.	.	8cc#
8F#	.	8a	[8ccn
=21	=21	=21	=21
8G	1r	4d	8cc]
8GG	.	.	8bn
8r	.	2g	4ee-
8GG	.	.	.
8AA-	.	.	4.cc
8GG	.	.	.
8AAn	.	8f#	.
8BBn	.	[8fn	8dd
=22	=22	=22	=22
8C	1r	8f]	4g
8CC	.	8en	.
8r	.	4a-	2cc
8C	.	.	.
8D-	.	4.f	.
8C	.	.	.
8Dn	.	.	8bn
8E	.	8g	[8b-
=23	=23	=23	=23
8F	1r	4c	8b-]
8FF	.	.	8an
8r	.	2cc	2aa
8F	.	.	.
8F#	.	.	.
8G	.	.	.
8r	.	8bn	[4dd
8GG	.	8b-	.
=24	=24	=24	=24
8FF	1r	8a	8dd]
8EE	.	8g#	8ee
8DD	.	8a	[4ff
8D	.	8bn	.
8AA	.	4cc	8ff]
8B-	.	.	8ggn
8A	.	[4cc#	[4aa
8G	.	.	.
=25	=25	=25	=25
8F	1r	4cc#]	8aa]
8E	.	.	8gg
[4D	.	8dd	2bb-
.	.	8ee	.
8D]	.	8ff	.
8G	.	8dd	.
4C#	.	[4ee	8aa
.	.	.	8gg
=26	=26	=26	=26
4D	1r	8ee]	[2ff
.	.	8a	.
8r	.	8bn	.
8AA	.	8cc#	.
8BB-	.	[2dd	8ff]
8B-	.	.	8ee
8A	.	.	8ff#
8G	.	.	8gg
=27	=27	=27	=27
4.F#T	1r	8dd]	4aa
.	.	8ccn	.
.	.	8b-	[4dd
16E	.	8a	.
16F#	.	.	.
8G	.	[2b-	8dd]
8Fn	.	.	8gg
8E	.	.	8cc#
8D	.	.	8dd
=28	=28	=28	=28
4.C#T	1r	4b-]	8ee
.	.	.	8ff
.	.	[4a	8gg
16BBn	.	.	8ee
16C#	.	.	.
8D	.	8a]	[2ff
8Cn	.	8dd	.
8BB	.	8g#	.
8AA	.	8a	.
=29	=29	=29	=29
4GG#	4r	[2bn	8ff]
.	.	.	8ff
4G#	2e	.	8ee
.	.	.	8dd
4A	.	8b]	4.cc
.	.	16a	.
.	.	16gn	.
8AA	[4A	8f#	.
8BBn	.	8fn	8dd
=30	=30	=30	=30
4C	8A]	8e	4ee
.	8Bn	8d#	.
8r	[4c	8e	4r
8AA	.	8f#	.
8E	8c]	4g	2r
8Fn	8dn	.	.
8E	[4e	4g#	.
8D	.	.	.
=31	=31	=31	=31
8C	8e]	4g#	1r
8BBn	8d	.	.
[4AA	2f	8a	.
.	.	8bn	.
8AA]	.	8cc	.
8D	.	8a	.
4GG#	8e	[4b	.
.	8d	.	.
=32	=32	=32	=32
8AA	[2c	8b]	1r
8C	.	8e	.
8D	.	8f#	.
8E	.	8g#	.
4Fn	8c]	[2a	.
.	8Bn	.	.
8E	8c#	.	.
8D	8d	.	.
=33	=33	=33	=33
8C#	[2e	8a]	1r
8AA	.	8b-	.
8BBn	.	8a	.
8C#	.	8g	.
8D	8e]	4f#	.
8E	8A	.	.
8D	8Bn	[4fn	.
8Cn	8cn	.	.
=34	=34	=34	=34
8BBn	[2d	8f]	1r
8GG	.	8a	.
8AA	.	8g	.
8BB	.	8f	.
8C	8d]	4e	.
8D	8G	.	.
8C	8A	[4e-	.
8BB-	8B-	.	.
=35	=35	=35	=35
8AA	8c	8e-]	1r
8GG	8B-	8g	.
8AA	2c	8f	.
8FF	.	8e-	.
8BB-	.	4.d	.
8AA	.	.	.
8BB-	[4F	.	.
8C	.	8en	.
=36	=36	=36	=36
4.D	8F]	8f	1r
.	8G	8e	.
.	[4A	8f	.
8E	.	8g	.
4.F	8A]	8a	.
.	8B-	8g	.
.	[4c	[4a	.
8D	.	.	.
=37	=37	=37	=37
4.G	8c]	8a]	1r
.	8B-	8g	.
.	2d	8b-	.
8F	.	8a	.
8E	.	8g	.
8D	.	8f	.
8E	8c	[4g	.
8C	8B-	.	.
=38	=38	=38	=38
4F	[2A	8g]	1r
.	.	8c	.
4E	.	8d	.
.	.	8e	.
2D	8A]	8f	.
.	8G	8e	.
.	8A	[4f	.
.	8Bn	.	.
=39	=39	=39	=39
4C	8c	8f]	1r
.	8G	16e	.
.	.	16d	.
8r	2c	4e	.
8C	.	.	.
8D-	.	4.f	.
8C	.	.	.
8Dn	8Bn	.	.
8E	[8B-	8g	.
=40	=40	=40	=40
8F	8B-]	4c	1r
8FF	8A	.	.
8r	4f	2a	.
8F	.	.	.
8BB-	4.d	.	.
8AA	.	.	.
8BBn	.	8g#	.
8C#	8e	[8gn	.
=41	=41	=41	=41
8D	4A	8g]	1r
8DD	.	16f#	.
.	.	16e	.
8r	2d	4f#	.
8D	.	.	.
8E-	.	4.g	.
8D	.	.	.
8En	8c#	.	.
8F#	[8cn	8a	.
=42	=42	=42	=42
8G	8c]	4d	1r
8GG	8Bn	.	.
8r	4g	2bn	.
8G	.	.	.
8C	4.e	.	.
8BBn	.	.	.
8C#	.	8a#	.
8D#	8f#	[8an	.
=43	=43	=43	=43
4.E	4.Bn	8a]	2ee
.	.	8g#	.
.	.	2gn	.
8E	8c#	.	.
8Fn	4.d	.	2a
8G	.	.	.
[4A	.	8f#	.
.	8d	8fn	.
=44	=44	=44	=44
4.A]	8cn	8e	2cc
.	8Bn	8d#	.
.	8c	8e	.
8A	8A	8f#	.
8G	4.B	4g	2ee
8F#	.	.	.
[4E	.	[4g#	.
.	8c	.	.
=45	=45	=45	=45
8E]	8d	4g#]	2ffn
8Fn	4c	.	.
8E	.	8a	.
8D	4Bn	8bn	.
4C	.	4cc	4ee
.	4A	.	.
4E	.	[4b	4dd
.	8G#	.	.
=46	=46	=46	=46
4AA	4A	8b]	[2cc
.	.	8e	.
4r	4r	8f#	.
.	.	8g#	.
2r	2r	8a	8cc]
.	.	8gn	8a
.	.	8fn	8bn
.	.	8e	8cc#
=47	=47	=47	=47
1r	8r	8f	8dd
.	8D	8f#	8ccn
.	8E	8g	8bn
.	8F#	[8a	8a
.	4G	8a]	4b
.	.	8g	.
.	8A	8fn	[4cc
.	8Fn	8e	.
=48	=48	=48	=48
1r	8G	8d	8cc]
.	8f	8g	8bn
.	8e	8a	8cc
.	8d	8bn	8dd
.	8c	8cc	8ee
.	8C	8e	8dd
.	8D	8f	8cc
.	8E	[8g	8b-
=49	=49	=49	=49
1r	4F	8g]	4a
.	.	8f	.
.	8G	8e-	[4b-
.	8E-	8d	.
.	8F	8c	8b-]
.	8e-	8f	8a
.	8d	8g	8b-
.	8c	8a	8cc
=50	=50	=50	=50
1r	8B-	8b-	8dd
.	8BB-	8d	8cc
.	8C	8e-	8b-
.	8D	8f	8a-
.	8E-	8B-	[2g
.	8F	8Bn	.
.	8E-	8c	.
.	8D	8d	.
=51	=51	=51	=51
2C	8C	8e-	8g]
.	8D	8d	8f#
.	8En	8c	8g
.	8F#	8e-	8a
2GG	4G	8d	8b-
.	.	8f#	8a
.	8r	[4g	8b-
.	8E-	.	8cc
=52	=52	=52	=52
2BB-	4D	8g]	8dd
.	.	8a	8cc#
.	8r	[4b-	8dd
.	8G	.	8een
2D	8Fn	8b-]	4ff
.	8B-	8dd	.
.	[4A	8ccn	[4ff#
.	.	8b-	.
=53	=53	=53	=53
2E-	4A]	8cc	4ff#]
.	.	8a	.
.	[4G	8b-	8gg
.	.	8cc	8aa
4D	8G]	[2dd	4bb-
.	8En	.	.
4C	8F#	.	[4aa
.	8A	.	.
=54	=54	=54	=54
[2BB-	8D	2dd_	8aa]
.	8F#	.	8dd
.	8G	.	8ee
.	8A	.	8ff#
8BB-]	8B-	8dd]	[2gg
8AA	8r	8cc#	.
8BBn	4r	8dd	.
8C#	.	8ee	.
=55	=55	=55	=55
4D	8r	2a	8gg]
.	8d	.	8ff#
8E	8c#	.	8gg
8F#	[8cn	.	[8aa
2G	8c]	4.d	8aa]
.	8c	.	8ff#
.	8Bn	.	4gg
.	8B-	8e	.
=56	=56	=56	=56
2D	8A	4.fn	1r
.	8G#	.	.
.	8A	.	.
.	8Bn	8gn	.
8C	4c	4.a	.
8D	.	.	.
[4E	[4c#	.	.
.	.	8g	.
=57	=57	=57	=57
8E]	4c#]	[2b-	1r
8G	.	.	.
8F	8d	.	.
8E	8e	.	.
4D	4f	8b-]	.
.	.	4a	.
4C#	4e	.	.
.	.	8g	.
=58	=58	=58	=58
[2D	8r	[2f	2dd
.	8A	.	.
.	8Bn	.	.
.	8c#	.	.
8D]	8d	8f]	4.a
4Cn	8A	8e	.
.	4D	8f#	.
8BBn	.	8g#	8bn
=59	=59	=59	=59
2AA	8E	8a	4.cc
.	8D#	8bn	.
.	8E	4cc	.
.	8F#	.	8ddn
8GG	4.G	8b	4.ee
8AA	.	8cc#	.
4BB-	.	4dd	.
.	8G#	.	8dd
=60	=60	=60	=60
8AA	4A	8cc#	[2ffn
8D	.	8ccn	.
8E	4r	8b-	.
8F	.	8a	.
4G	4r	4b-	8ff]
.	.	.	4ee
4G#	4e	4bn	.
.	.	.	8dd
=61	=61	=61	=61
8A	4e	8a	4cc#
8B-	.	8gn	.
8A	4r	8f#	[4ccn
8G	.	8a	.
4F#	2r	[2d	8cc]
.	.	.	8a
8G	.	.	8bn
8A	.	.	8cc#
=62	=62	=62	=62
8B-	1r	8d]	[2dd
8c	.	8f#	.
8B-	.	8g	.
8A	.	8a	.
8G	.	8b-	8dd]
8F	.	8bn	8dd
8E	.	8cc#	8ee
8D	.	8dd	8ff
=63	=63	=63	=63
4C#	2A	8ee	4.gg
.	.	8dd	.
2Cn	.	8ee-	.
.	.	8a	8ff#
.	2D	8b-	4.gg
.	.	8cc	.
8BBn	.	[4dd	.
8BB-	.	.	8gg#
=64	=64	=64	=64
8AA	2F	4dd]	[2aa
8GG#	.	.	.
8AA	.	8cc	.
8BBn	.	8bn	.
4C	2A	4a	8aa]
.	.	.	8aa
4C#	.	[4ee	8ggn
.	.	.	8ff
=65	=65	=65	=65
4C#	2B-	8ee]	4gg
.	.	8ee	.
8D	.	8dd	8ff
8E	.	8cc#	8ee
4F	4A	8dd	8dd
.	.	8a	8cc#
[4E	4G	8b-	8dd
.	.	8g	8ee
=66	=66	=66	=66
8E]	[2F	[2a	8ff
8AA	.	.	8gg
8BBn	.	.	8ff
8C#	.	.	8ee
[2D	8F]	8a]	8ff
.	8E	8b-	8gg
.	8F#	8a	4aa
.	8G	8g	.
=67	=67	=67	=67
8D]	[2A	8f#	[2cc
8Cn	.	8g	.
8BB-	.	4a	.
8AA	.	.	.
[2BB-	8A]	2d	8cc]
.	8D	.	8f#
.	8E	.	8g
.	8F#	.	8a
=68	=68	=68	=68
8BB-]	[2G	[2d	2b-
8AA	.	.	.
8BB-	.	.	.
8GG	.	.	.
[2D	8G]	8d]	[2a
.	8F#	8e-	.
.	8G	8d	.
.	8A	8c	.
=69	=69	=69	=69
1D_	4B-	8B-	8a]
.	.	8d	8f#
.	8A	8c#	[4g
.	8G	[8e	.
.	[2A	8e]	8g]
.	.	8e	8g
.	.	8d	8f#
.	.	8c#	8e
=70	=70	=70	=70
1D_	2A_	4.d	8f#
.	.	.	8g
.	.	.	4a
.	.	8cn	.
.	8A]	[2B-	[2d
.	8A	.	.
.	8G	.	.
.	8F#	.	.
=71	=71	=71	=71
2D_	[1G	8B-]	4.d]
.	.	8A	.
.	.	[2.B-	.
.	.	.	8c#
8D]	.	.	[2d
8AA	.	.	.
8BB-	.	.	.
8GG	.	.	.
=72	=72	=72	=72
1DD;	8G]	8B-]	1d;]
.	8F#	8A	.
.	8G	8B-	.
.	8E	8G	.
.	2F#;	2A;	.
====	====	====	====
*-	*-	*-	*-
